packages/ffe-icons/icons/open/300/md/dialogs.svg

<svg xmlns="http://www.w3.org/2000/svg" height="24" viewBox="0 -960 960 960" width="24"><path d="M376.155-340.001h207.69q15.461 0 25.807-10.347 10.347-10.346 10.347-25.807v-207.69q0-15.461-10.347-25.807-10.346-10.347-25.807-10.347h-207.69q-15.461 0-25.807 10.347-10.347 10.346-10.347 25.807v207.69q0 15.461 10.347 25.807 10.346 10.347 25.807 10.347Zm-163.846 200q-30.308 0-51.308-21t-21-51.308v-535.382q0-30.308 21-51.308t51.308-21h535.382q30.308 0 51.308 21t21 51.308v535.382q0 30.308-21 51.308t-51.308 21H212.309Zm0-59.999h535.382q4.616 0 8.463-3.846 3.846-3.847 3.846-8.463v-535.382q0-4.616-3.846-8.463-3.847-3.846-8.463-3.846H212.309q-4.616 0-8.463 3.846-3.846 3.847-3.846 8.463v535.382q0 4.616 3.846 8.463 3.847 3.846 8.463 3.846ZM200-760V-200-760Z"/></svg>

<svg xmlns="http://www.w3.org/2000/svg" height="24" viewBox="0 -960 960 960" width="24"><path d="M376.16-340h207.68q15.47 0 25.81-10.35Q620-360.69 620-376.16v-207.68q0-15.47-10.35-25.81Q599.31-620 583.84-620H376.16q-15.47 0-25.81 10.35Q340-599.31 340-583.84v207.68q0 15.47 10.35 25.81Q360.69-340 376.16-340ZM212.31-140Q182-140 161-161q-21-21-21-51.31v-535.38Q140-778 161-799q21-21 51.31-21h535.38Q778-820 799-799q21 21 21 51.31v535.38Q820-182 799-161q-21 21-51.31 21H212.31Zm0-60h535.38q4.62 0 8.46-3.85 3.85-3.84 3.85-8.46v-535.38q0-4.62-3.85-8.46-3.84-3.85-8.46-3.85H212.31q-4.62 0-8.46 3.85-3.85 3.84-3.85 8.46v535.38q0 4.62 3.85 8.46 3.84 3.85 8.46 3.85ZM200-760v560-560Z"/></svg>
